X:21
T:Cure for the Gout. Ru1.101, A
%%VWML:RutherfordVol1-2248-p51-0p51
Z:Transcription by Village Music Project, Steve Mansfield July 2015
F:http://www.village-music-project.org.uk/
F:http://www.vwml.org/record/RutherfordVol1/2248/p51
L:1/8
Q:1/4=100
K:D
e|defd B/B/Be2|defd gefd|gefd B/B/B ef/g/|afged2A:|
|:B/c/|dBAF E/E/EB2|dBAFN DFAF|GBFA E/E/E EB/c/|dBAFA2D:|
W:Foot it all four & Hands across Quite round .|
W:Foot it & the same back again :| Cross over 2 Cu.
W:Lead up to the Top foot it & cast off :||: Foot it
W:Corners & turn .|| Foot it the other Corners &
W:turn :|| Lead out sides & turn your Partner :|
|:
T:Sauny's Delight. Ru1.102
B:Rutherford's Country Dances Vol 1, 1756
Z:village music project, Ruairidh Greig July 2015
M:C|
L:1/8
Q:1/4=120
K:G
c|"tr"B2 AG FGAc|BGcA BGcA|"tr"B2 AG FGAf|gdcd BGG:|
|:c|B d2 (e/f/) gdBG|cA2 f/g/ agfd|gbgd egec|Bdgd BGG:|
W:Foot it & cast off 2 Couples .| Foot it & cast
W:up again :| Cross over 2 Couples Lead up to
W:the Top foot it & cast off :||: foot it Corners &
W:turn :|| Lead out sides & turn :|
|:
